X:1
T:Khvalitye imya Gospodie
T:П. И. Чаиковский, 1885
T:From Orthodox Service For the Dead. based on Psalm 64:5 and 101:13
T:Блажени яже избрал
T:Девять духовно-музыкальных сочинений,  No. 7
T:Причастний стих на анупокойной литургий
T:Public Domain
T:Public Domain
T:Public Domain
T:Public Domain
T:Public Domain
T:Public Domain
T:Public Domain
C:Sergei Rakhmanninov
Z:Public Domain
%%score [ ( 1 2 ) ( 3 4 ) ( 5 6 ) ( 7 8 ) ]
L:1/8
Q:1/4=60
M:3/4
K:Eb
V:1 treble nm="Дискант" snm="Д"
V:2 treble 
V:3 treble nm="Альт" snm="A."
V:4 treble 
V:5 treble-8 nm="Тенор" snm="Т"
V:6 treble-8 
V:7 bass nm="Бас" snm="Б"
V:8 bass 
V:1
 z4"^Довольно медленно\nModerately slow"!mf!"^Bla  – zhye – ni,  ________                              Bla  –zhye –  ni  _________                               ya     –        zhye     iz –""^Бла – же  –   ни, ________                              Бла – же  –   ни _________                                я        –         же       из –" e2 | %1
 !>!d>c c2- c z | z2 z2 c2 | !>!B>A A2- A z | z2 z2!p! F2- |!<(! F2 DE F2!<)! | %6
"^–bral ________________                             i   pri –yal      ye     –     si, ________________                          ya–zhe  iz–bral   i    pri –yal""^–брал _______________                            и  при–ял       е       –     си, _______________                            я –же  из–брал и  при–ял"!>(! G6-!>)! | %7
 G2 z2 z2 |!mp! G!<(!G EF G2!<)! |!<(! B6-!<)! | B2 z2 z2 |!f! e2 d2 c2 | B2 BB B2 | %13
 z2"^ye – si,    Gos–po– di!  Bla   – zhe  –    ni, ________                                      Bla  – zhe  –   ni _________                                 Bla    –""^е  –  си,    Гос–по–ди!  Бла  – же   –   ни, ________                                     Бла – же  –   ни _________                                 Бла   –" B2 c2 | %14
 A>A A2!f! f2 | !>!e>d d2- d z | z2 z2 f2 | !>!e>d d2- d z | z2 z2 e2 | %19
"^–же  –  ни, ______                            Бла–же – ни,     я – же из–брал  и    при– ял      е  –  си,     Гос   –    по  –  ди!              И""^–zhe –  ni, ______                             Bla –zhe– ni,    ya –zhe  iz–bral     i     pri – yal     ye –  ci,     Gos  –     po –   di!                I" !>!d>c c2- c z | %20
 z2 z2 c2 |!>(! c4 B2!>)! |!p! E2 EE !>!E2 | EE !>!E2 FE | !>!D4!p! D2 | E2 z2 !fermata!z!mf! G | %26
"^pa – myat'  ikh    v rod  i    rod,           I         pa – myat'  ikh  v rod  i   rod,          I         pa–myat' ikh  v rod  i   rod,        I""^па – мять  их      в род  и   род,         И        па – мять  их     в род  и  род,        И       па–мять их     в род  и  род,      И"!<(! G3 =A G^F!<)! | %27
 G>B B2 z!f! B |!<(! B3 c B=A!<)! | B>d d2 z!ff! f | f3 g fe | d>[df] [df]2 z [df] | %32
"^па           –        мять     их     в род _______________      и     род, ________________              Ал –ли – лу –  и  – а, _________""^pa           –        myat'    ikh    v rod _______________      i      rod, ________________               Al  –  li  –  lu  –   i   – a, _________" [df][eg][fa][eg] [df][ce] | %33
 fg (efge | f3) f f2- | f6- | f2 !fermata!z2!f! ee | !>!d>c c2- c z | %38
 z2 z2"^Al  –  li  –  lu   –  i – a, _________""^Ал –ли – лу –  и  –а, _________" cc | %39
 !>!B>A A2- A z | z6 | z6 | z6 | %43
 z2!ff!"^Ал–ли–лу–и  – а,                         Ал–ли  –  лу – и –а,         Ал–ли –лу – и –а,        Ал–ли  – лу    –    и  –а,   Ал –""^Al – li – lu – i  –  a,                          Al – li    –  lu  –  i – a,          Al  –li  – lu  – i – a,         Al  – li  –  lu     –     i  – a,   Al  –" cc !>!B>A | %44
 A2 z2 ff | !>!e>d d2 ff | !>!e>d d2 ff | ed ed (cB | %48
 A)"^–  ли – лу – и – а,             Ал–ли  –лу – и   – а,            Ал–ли –лу   –         –         –         –         –       и   –  а. ________""^–   li   –  lu –  i  – a,             Al  – li  –  lu  –  i   –  a,            Al  – li  – lu    –         –         –         –         –        i   –  a. ________"G F>G G2 | %49
 z2!f! G2 G2 | E3 E E2 | z2 F2 F2 | D6- | (D6 |!>(! E6-)!>)! | E4 E2 |!p! E6- | %57
 E2 z2 !fermata!z2 |] %58
V:2
 x4 B2 | B>c c2- c x | x2 x2 A2 | G>A A2- A x | x6 | x6 | x6 | x6 | x6 | x6 | x6 | x6 | x6 | x6 | %14
 x4 c2 | c>d d2- d x | x2 x2 c2 | c>d d2- d x | x2 x2 B2 | B>c c2- c x | x6 | x6 | x6 | x6 | x6 | %25
 x6 | x6 | x6 | x6 | x4 x d | d3 e dc | x6 | x6 | d2 (cdec | d3) d d2- | d6- | d2 x2 BB | %37
 B>c c2- c x | x2 x2 AA | G>A A2- A x | x6 | x6 | x6 | x6 | x6 | x6 | x6 | x6 | x6 | x6 | x6 | x6 | %52
 x6 | x6 | x6 | x6 | x6 | x6 |] %58
V:3
 z4!mf! G2 | !>!G>A A2- A z | z2 z2 E2 | !>!E>F F2- F z | z6 | %5
!p!"^я        –         –""^ya      –         –"!<(! c6-!<)! | %6
"^–      же  из–брал                                       и                          при   –   ял, ______________""^–     zhe  iz – bral                                         i                           pri   –    yal, ______________"!>(! c2 =B=A B2-!>)! | %7
 B2 z2 z2 |!mp!!<(! C4 C2!<)! |!<(! F6-!<)! | F2 z2 z2 |!f! B2 B2 G2 | G2 GG G2 | z2 G2 G2 | %14
 G>F F2!f! A2 | !>!A>B B2- B z | z2 z2 A2 | !>!A>B B2- B z | z2 z2 E2 | !>!G>A A2- A z | z2 z2 A2 | %21
!>(! A4 G2!>)! |!p! E2 EE !>!D2 | CC !>!B,2 CC | (!>!C2 B,2)!p! B,2 | B,2 z2 !fermata!z!mf! C | %26
!<(! C3 E CD!<)! | D>G G2 z!f! E |!<(! E3 G EF!<)! | F>B B2 z!ff! B | B3 B BG | B>B B2 z B | %32
 (B2 cB) BG | B2 (GBBG | B3) B B2- | B6- | B2 !fermata!z2!f! GG | !>!G>A A2- A z | z2 z2 EE | %39
 !>!E>F F2- F z | %40
 z2 z2!f!"^Ал–ли  –лу– и – а,        Ал–ли    –   лу          –          и  –""^Al  – li  –  lu  – i  – a,        Al  – li      –   lu           –           i  –" FF | %41
 !>!E>D D2 GC | (FE D2) G2 | %43
"^– а,          Ал – ли      –      лу    –    и – а,   Ал – ли –лу   –    и –а,    Ал–ли –лу   –    и –а,   Ал –ли –лу   –     и  –а,    Ал –""^– a,          Al  –  li        –       lu     –     i –  a,   Al  –   li –  lu    –    i – a,     Al  –li  – lu     –    i – a,   Al –  li  –  lu     –    i  – a,     Al  –" G z!ff! G2 C2 | %44
 F2 FF c>c | A2 BB c>c | A2 BB c>c | AB BG E2- | %48
 E"^–  ли – лу – и – а,             Ал–ли  –лу – и   – а,            Ал–ли –лу   –         –         –         –         –       и   –  а. ________""^–   li   –  lu –  i  – a,             Al  – li  –  lu  –  i   –  a,            Al  – li  – lu    –         –         –         –         –        i   –  a. ________" E/D/ C>D D2 | %49
 z2!f! D2 D2 | D3 C C2 | z2 c2 c2 | (c6 | B4 A2 |!>(! G6-!>)! | G4) G2 |!p! G6- | %57
 G2 z2 !fermata!z2 |] %58
V:4
 x4 E2 | G>A A2- A x | x2 x2 A,2 | E>F F2- F x | x6 | x6 | x6 | x6 | x6 | x6 | x6 | x6 | x6 | x6 | %14
 x4 F2 | A>B B2- B x | x2 x2 F2 | A>B B2- B x | x2 x2 E2 | G>A A2- A x | x6 | x6 | x6 | x6 | x6 | %25
 x6 | x6 | x6 | x6 | x6 | x6 | x6 | x6 | x6 | x6 | x6 | x2 x2 EE | G>A A2- A x | x2 x2 A,A, | %39
 E>F F2- F x | x6 | x6 | x6 | x6 | x6 | x6 | x6 | x6 | x6 | x6 | x6 | x6 | x6 | x6 | x6 | x6 | x6 | %57
 x6 |] %58
V:5
 z6 | %1
 z2 z!mf!"^Бла–же         –        ни,                                      Бла–же        –         ни""^Bla–zhye       –        ni,                                       Bla –zhye      –        ni" e !>!e2- | %2
 e2 c2 z2 | z2 z c c2- | c2 A2 z2 |!p!!<(! F3 E Dd!<)! | %6
"^Blessed are the chosen ones\nCommunion verse in funeral liturgy\nNine spiritual-musical compositions, No. 7 (No Opus No.)\nP. I. Tchaikovsky, 1885""^–брал _______________                             и                          при  –  ял     е   – си, _____                            я –же  из–брал и  при–ял""^–bral ________________                             i                            pri  –  yal     ye –  si, ______                         ya–zhe  iz–bral   i    pri –yal"!>(! d6-!>)! | %7
 d2 z2 z2 |!mp!!<(! G4 Ge!<)! |!<(! e2 dc d2-!<)! | d2 z2 z2 |!f! e2 f2 e2 | d2 dd d2 | %13
 z2"^е  –  си,    Гос–по–ди!                                                           Бла–же – ни,                                                            Бла– же     –     ни""^ye – si,    Gos–po– di!                                                           Bla–zhe –  ni,                                                             Bla – zhe    –     ni" d2 c2 | %14
 c>c c2 z2 | %15
 z2 z!f!"^Бла –же          –          ни,                                         Бла–же         –         –        ни""^Bla –zhe          –           ni,                                          Bla –zhe       –          –        ni" f !>!f2- | %16
 f2 d2 z2 | z2 z f (!>!f2- | f2 d2) B2 | %19
 z2 z"^Бла–же     –         ни,  Бла–же–ни,""^Bla –zhe    –          ni,   Bla–zhe–ni," e !>!e2- | %20
 e2 c2 d2 |!>(! d4 e2!>)! |!p! A2 AA !>!A2 | AA !>!B2 AA | !>!A4!p! A2 | G2 z2 !fermata!z!mf! G | %26
"^па – мять  их      в род  и   род,         И        па – мять  их     в род  и  род,        И       па–мять их     в род  и  род,      И""^pa – myat'  ikh    v rod  i    rod,           I         pa – myat'  ikh  v rod  i   rod,          I         pa–myat' ikh  v rod  i   rod,        I"!<(! G3 c G=A!<)! | %27
 d>d d2 z!f! B |!<(! B3 e Bc!<)! | d>f f2 z!ff! f | f3 g fe | f>[df] [df]2 z [df] | %32
"^па           –        мять     их     в род _______________      и     род, ________________                                                                        Ал –ли –""^pa           –        myat'    ikh    v rod _______________      i      rod, ________________                                                                         Al  –  li   –" [df][eg][fa][eg] [df]e | %33
 fg efge | f3 f f2- | f6- | f2 !fermata!z2 z2 | %37
 z2!f!"^Ал–ли–лу    –""^Аl – li – lu     –" ee!f! e2- | %38
"^–      и  –а,                                            Ал–ли –лу           –           и –а,""^–       i  – a,                                            Al  – li – lu            –            i – a,""^–лу–и –а,                                                              Ал–ли –  лу – и  –а,                                       Ал–ли–лу  – и   –  а,        Ал  –  ли –""^– lu– i – a,                                                              Al  – li   –  lu  –  i  – a,                                       Al  –li  – lu   –  i   –   a,        Al   –   li   –" e>c c2 z2 | %39
 z2 cc !>!c2- | c>A A2 z2 | z2!f! cc !>!B>A |!<(! A2 fc =B2!<)! | %43
"^–лу  –   и– а,  Ал–ли – лу – и–а, _________            Ал           –           ли      –    лу    –    и     –    а,               Ал    –    ли    –   лу  –""^– lu   –   i – a,  Al –  li   –  lu  – i –a, _________           Al             –            li        –     lu     –     i     –    a,                Al     –     li      –    lu  –" c2!ff! cc ff | %44
 !>!e>d (d2 c2) | f4 f2 | f2 f2 f2 | f2 eB (AG | %48
"^–        –        –   и –а,              Ал–ли  –лу – и   – а,            Ал–ли –лу   –         –         –         –         –       и   –  а. ________" A"^–        –        –    i – a,              Al  – li  –  lu  –  i   –  a,            Al  – li  – lu    –         –         –         –         –        i   –  a. ________"B c>)=B B2 | %49
 z2!f! =B2 B2 | G3 G G2 | z2 A2 A2 | F6- | (F6 |!>(! B6-)!>)! | B4 B2 |!p! B6- | %57
 B2 z2 !fermata!z2 |] %58
V:6
 x6 | %1
 x2 z2 z!mf!"^Бла–же –ни,                                                     Бла –же– ни                я      –     же  из –""^Bla–zhye–ni,                                                     Bla–zhye–ni                ya    –   zhye iz –" c | %2
 !>!c2 A2 x2 | x2 z2 z A | A2 F2 x2 | x6 | x6 | x6 | x6 | x6 | x6 | x6 | x6 | x6 | x6 | %15
 x2 z2 z!f! d | d2 B2 x2 | x2 z2 z d | !>!d2 B2 B2 | %19
 x2 z2 z"^Бла–же–ни,  Бла–же–ни,    я – же из–брал  и    при– ял      е  –  си,     Гос   –    по  –  ди!              И""^Bla–zhe– ni,  Bla–zhe– ni,   ya –zhe  iz–bral     i     pri – yal     ye –  ci,     Gos  –     po –   di!               I" c | %20
 !>!c2 A2 A2 | A4 B2 | x6 | x6 | x6 | x6 | x6 | x6 | x6 | x4 x d | d3 e de | x6 | x6 | d2 ed ee | %34
 d3 d d2- | d6- | d2 x4 | x2 z2 cc | c>A A2 x2 | x2 z2 AA | A>F F2 x2 | x6 | x6 | x6 | x6 | x6 | %46
 x6 | x6 | x6 | x6 | x6 | x6 | x6 | x6 | x6 | x6 | x6 | x6 |] %58
V:7
 z6 | %1
 z2 z2 z!mf!"^Бла–же –ни,                                                    Бла –же– ни                я      –         –          –""^Bla–zhye–ni,                                                    Bla–zhye–ni                ya    –         –          –" E, | %2
 !>!E,2 E,2 z2 | z2 z2 z C, | !>!C,2 C,2 z2 |!p!!<(! (A,,6!<)! | %6
"^–        –         –         –         же из-брал  и ___________    при  –   ял, _________      и        при-ял,""^–        –         –         –       zhe  iz–bral     i  ___________    pri    –  yal, _________      i         pri–yal,"!>(! G,,6!>)! | %7
 G,2)!p!!<(! G,A, G,F,!<)! |!mp! (E,2!<(! C,D,) E,C,!<)! |!<(! B,,6!<)! |!f! B,3 B, B,A, | %11
!f! G,2 B,2 C2 | G,2 G,G, G,2 | z2 F,2 E,2 | F,>F, F,2 z2 | z2 z2 z!f! F, | !>!F,2 F,2 z2 | %17
 z2 z2 z F, | !>!F,4 G,2 | z2 z2 z E, | !>!E,2 E,2 F,2 |!>(! F,4 G,2!>)! |!p! C,2 C,C, !>!B,,2 | %23
 A,,A,, !>!G,,2 F,,F,, | !>!F,4!p! F,2 | E,2 z2 !fermata!z!mf! E, |!<(! E,3 C, E,D,!<)! | %27
 B,>G, G,2 z!f! G, |!<(! G,3 E, G,F,!<)! | D>B, B,2 z!ff! B, | B,3 [G,B,] B,C | B,>B, B,2 z B, | %32
 B,2 CB, B,C | B,2 CB, B,C | B,3 B, B,2- | B,6- | B,2 !fermata!z2 z2 | z2 z2!f! E,E, | %38
 !>!E,>E, E,2 z2 | z2 z2 C,C, | !>!C,>C, C,2 z2 | z6 | z4!ff!"^Ал–ли –""^Al  – li  –" G,G, | %43
"^–лу–и– а, ______             Ал–ли –лу–и– а,              Ал–ли–лу–и–а,             Ал–ли–лу–и–а,               Ал           –           ли  –""^–lu – i – a, ______              Al – li   –lu – i –a,               Al –  li – lu – i–a,              Al – li  – lu– i –a,               Al             –            li   –" !>!F,>E, (E,2 F,) z | %44
 CC !>!B,>A, A,2 | CC !>!B,>A, A,2 | CC !>!B,>A, A,2 | (CB,/A,/ G,G,,) A,,B,, | %48
"^– лу         –         и – а,              Ал–ли  –лу – и   – а,            Ал–ли –лу   –         –         –         –         –       и   –  а. ________""^– lu           –         i  – a,              Al  – li  –  lu  –  i   –  a,            Al  – li  – lu    –         –         –         –         –        i   –  a. ________" (C,B,, A,,>)G,, G,,2 | %49
 z2!f! G,,2 G,,2 | C,3 C, C,2 | z2 F,,2 F,,2 | %52
"^__________________________________________________________\nEdited  by B. C. Johnston, 2016\n   1. In original, \nAlto \ngoes up to high C. Measures 1-2 and 9-51 of \nAlto \nmoved down one octave.\n   2. Measures 4-5, Alto: A/D - A - B - B changed to E/A - E - F - F." B,,6- | %53
 ((B,,6 |!>(! [E,,E,]6-))!>)! | [E,,E,]4 [E,,E,]2 |!p! [E,,E,]6- | [E,,E,]2 z2 !fermata!z2 |] %58
V:8
 x6 | x4 x A,, | A,,2 A,,2 x2 | x4 x F,, | F,,2 F,,2 x2 | x6 | x6 | x6 | x6 | x6 | x6 | x6 | x6 | %13
 x6 | x6 | x4 x B,, | B,,2 B,,2 x2 | x4 x B,, | B,,4 G,,2 | x4 x A,, | A,,2 A,,2 F,,2 | F,,4 G,,2 | %22
 x6 | x6 | x6 | x6 | x6 | x6 | x6 | x6 | x6 | x6 | B,G, F,G, B,C | B,G, CB, G,C | B,3 B, B,2- | %35
 B,6- | B,2 x4 | x4 A,,A,, | A,,>A,, A,,2 x2 | x4 F,,F,, | F,,>F,, F,,2 x2 | x6 | x6 | x6 | x6 | %45
 x6 | x6 | x6 | x6 | x6 | x6 | x6 | x6 | x6 | x6 | x6 | x6 | x6 |] %58

